X:2
T:Tabulature pour iouer du Fifre ou Arigot en mesure ternaire. (*)
R:
S:Thoinot Arbeau
B:Orchesographie (1589)
O:France
A:Champaigne
Z: Eric Forgeot - http://anamnese.online.fr
M:6/2
L:1/2
Q:1/2=170
K:C
z2 z GAB | c2c GAB | c3/2 d/ c GAB | c2 c B/c/d/c/ B/A/ | 
B3 A/B/c/ B/A/G/ | A3 G/A/B/ A/G/F/ | G3 FED | E3 EDF | E3 EDF | E3 D/E/F/E/D/C/ | D3 CDED
/.../ G3 F/G/A/G/F/G/ |  /.../
